icons/projector.svg

<svg width="24" height="24" viewBox="0 0 24 24" fill="none" xmlns="http://www.w3.org/2000/svg">
<path fill-rule="evenodd" clip-rule="evenodd" d="M4.3 7.40002C4.01421 7.40002 3.75 7.66424 3.75 7.95002V13.95C3.75 14.3164 3.99048 14.5 4.2 14.5H19.7C19.9858 14.5 20.25 14.2358 20.25 13.95V7.95002C20.25 7.66424 19.9858 7.40002 19.7 7.40002H4.3ZM2.25 7.95002C2.25 6.83581 3.18579 5.90002 4.3 5.90002H19.7C20.8142 5.90002 21.75 6.83581 21.75 7.95002V13.95C21.75 15.0642 20.8142 16 19.7 16H4.2C3.00952 16 2.25 14.9836 2.25 13.95V7.95002Z" fill="black"/>
<path fill-rule="evenodd" clip-rule="evenodd" d="M16.6 10.1C16.1306 10.1 15.75 10.4805 15.75 10.95C15.75 11.4194 16.1306 11.8 16.6 11.8C17.0694 11.8 17.45 11.4194 17.45 10.95C17.45 10.4805 17.0694 10.1 16.6 10.1ZM14.25 10.95C14.25 9.65211 15.3021 8.59998 16.6 8.59998C17.8979 8.59998 18.95 9.65211 18.95 10.95C18.95 12.2478 17.8979 13.3 16.6 13.3C15.3021 13.3 14.25 12.2478 14.25 10.95Z" fill="black"/>
<path fill-rule="evenodd" clip-rule="evenodd" d="M5.75 10.9501C5.75 10.5359 6.08579 10.2001 6.5 10.2001H11.1C11.5142 10.2001 11.85 10.5359 11.85 10.9501C11.85 11.3643 11.5142 11.7001 11.1 11.7001H6.5C6.08579 11.7001 5.75 11.3643 5.75 10.9501Z" fill="black"/>
<path fill-rule="evenodd" clip-rule="evenodd" d="M6.09998 14.5C6.51419 14.5 6.84998 14.8358 6.84998 15.25V17.35C6.84998 17.7642 6.51419 18.1 6.09998 18.1C5.68576 18.1 5.34998 17.7642 5.34998 17.35V15.25C5.34998 14.8358 5.68576 14.5 6.09998 14.5Z" fill="black"/>
<path fill-rule="evenodd" clip-rule="evenodd" d="M17.7999 14.5C18.2141 14.5 18.5499 14.8358 18.5499 15.25V17.35C18.5499 17.7642 18.2141 18.1 17.7999 18.1C17.3857 18.1 17.0499 17.7642 17.0499 17.35V15.25C17.0499 14.8358 17.3857 14.5 17.7999 14.5Z" fill="black"/>
</svg>

<svg xmlns="http://www.w3.org/2000/svg" fill="none" viewBox="0 0 24 24">
  <path fill="#000" fill-rule="evenodd" d="M4.3 7.4a.575.575 0 0 0-.55.55v6c0 .366.24.55.45.55h15.5c.286 0 .55-.264.55-.55v-6a.575.575 0 0 0-.55-.55H4.3Zm-2.05.55c0-1.114.936-2.05 2.05-2.05h15.4c1.114 0 2.05.936 2.05 2.05v6c0 1.114-.936 2.05-2.05 2.05H4.2c-1.19 0-1.95-1.016-1.95-2.05v-6Z" clip-rule="evenodd"/>
  <path fill="#000" fill-rule="evenodd" d="M16.6 10.1a.85.85 0 1 0 0 1.7.85.85 0 0 0 0-1.7Zm-2.35.85a2.35 2.35 0 1 1 4.7 0 2.35 2.35 0 0 1-4.7 0Zm-8.5 0a.75.75 0 0 1 .75-.75h4.6a.75.75 0 0 1 0 1.5H6.5a.75.75 0 0 1-.75-.75Zm.35 3.55a.75.75 0 0 1 .75.75v2.1a.75.75 0 0 1-1.5 0v-2.1a.75.75 0 0 1 .75-.75Zm11.7 0a.75.75 0 0 1 .75.75v2.1a.75.75 0 0 1-1.5 0v-2.1a.75.75 0 0 1 .75-.75Z" clip-rule="evenodd"/>
</svg>
